X: 1
T: Fiddler's Dream
R: reel
Z: 2011 John Chambers <jc:trillian.mit.edu>
S: printed MS of unknown origin
M: C|
L: 1/8
K: D
|:\
"D"A,B,DE FEDB, | A,B,DE FEDB, | "G"G,A,B,D EFGA | Bdef gfed | "A7"c2cd cBAF |
"A7"EFAB cdef |1 gfed cAB2 | "D"A3B A2A2 :|2 gfed cABc | "D"d4 d2fg ||
|:\
"D"a4 a4 | b2a2 fedf | b2a2 fed2 | "G"B3c B4 | "A"c2cd cBAF |
"A7"EFAB cdef |1 gfed cAB2 | "D"A3B A2fg :|2 "A7"gfed cABc | "D"d4 d4 |]
